src/assets/images/export-data.svg

<svg fill="none" height="26" viewBox="0 0 23 26" width="23" xmlns="http://www.w3.org/2000/svg"><g stroke="#44af6d" stroke-linejoin="round"><path d="m9.7346 22.4366h-4.7787c-.56329 0-1.1035-.2238-1.5018-.6221s-.62207-.9385-.62207-1.5018v-14.86705c0-.56329.22377-1.1035.62207-1.50181.3983-.3983.93851-.62206 1.5018-.62206h7.4335l5.3097 5.30967v5.30965m-5.3097 6.3716h7.4336m0 0-3.1858-3.1858m3.1858 3.1858-3.1858 3.1858"/><path d="m11.3262 4.45483v4.24774c0 .28164.1119.55175.311.7509.1992.19915.4693.31103.7509.31103h4.2477"/></g></svg>

<svg width="23" height="26" viewBox="0 0 23 26" fill="none" xmlns="http://www.w3.org/2000/svg">
<g clipPath="url(#clip0_552_27676)">
<path d="M9.7346 22.4366H4.9559C4.39261 22.4366 3.8524 22.2128 3.4541 21.8145C3.0558 21.4162 2.83203 20.876 2.83203 20.3127V5.44565C2.83203 4.88236 3.0558 4.34215 3.4541 3.94384C3.8524 3.54554 4.39261 3.32178 4.9559 3.32178H12.3894L17.6991 8.63145V13.9411M12.3894 20.3127H19.823M19.823 20.3127L16.6372 17.1269M19.823 20.3127L16.6372 23.4985" stroke="#44AF6D" strokeWidth="2.12387" strokeLinecap="round" stroke-linejoin="round"/>
<path d="M11.3262 4.45483V8.70257C11.3262 8.98421 11.4381 9.25432 11.6372 9.45347C11.8364 9.65262 12.1065 9.7645 12.3881 9.7645H16.6358" stroke="#44AF6D" strokeWidth="2.12387" strokeLinecap="round" stroke-linejoin="round"/>
</g>
<defs>
<clipPath id="clip0_552_27676">
<rect width="22.6546" height="25.4864" fill="white" transform="translate(0 0.207031)"/>
</clipPath>
</defs>
</svg>
